!!!COM: Music21
!!!OTL: mazurka_Bluestack--The
!!!OMV: mazurka_Bluestack--The
**kern
*clefG2
*k[f#c#]
*D:
*M3/4
=1
8f#L
8gJ
=
4a
4dd
8cc#L
8ddJ
=
4ee
4dd
8cc#L
8ddJ
=
4b
4cc#
8bL
8aJ
=
4f#
8aL
8gJ
8f#L
8gJ
=
4a
8ddL
8bJ
8cc#L
8ddJ
=
4ee
4dd
8cc#L
8ddJ
=
4b
4cc#
8bL
8aJ
!!linebreak:original
=
4dd
4dd
4ryy
=||
*M3/4
8f#L
8gJ
=
4a
4dd
8cc#L
8ddJ
=
4ee
4dd
8cc#L
8ddJ
=
4b
4cc#
8bL
8aJ
=
4f#
8aL
8gJ
8f#L
8gJ
=
4a
8ddL
8bJ
8cc#L
8ddJ
=
4ee
4dd
8cc#L
8ddJ
!!linebreak:original
=
4b
4cc#
8bL
8aJ
=
4dd
4dd
4ryy
=||
8ff#L
8eeJ
2ryy
=
4dd
8bL
8ddJ
8aL
8f#J
=
4e
4e
8cc#L
8bJ
=
4a
8f#L
8dJ
8eL
8dJ
=
4b
4a
8f#L
8gJ
=
4a
8ddL
8bJ
8cc#L
8ddJ
=
4ee
4dd
8cc#L
8ddJ
!!linebreak:original
=
4b
4cc#
8bL
8aJ
=
4dd
4dd
4ryy
=||
*M3/4
8f#L
8gJ
=
4a
4dd
8cc#L
8ddJ
=
4ee
4dd
8cc#L
8ddJ
=
4b
4cc#
8bL
8aJ
=
4f#
8aL
8gJ
8f#L
8gJ
=
4a
8ddL
8bJ
8cc#L
8ddJ
!!linebreak:original
=
4ee
4dd
8cc#L
8ddJ
=
4b
4cc#
8bL
8aJ
=
4dd
4dd
4ryy
=||
*M3/4
8f#L
8gJ
=
4a
4dd
8cc#L
8ddJ
=
4ee
4dd
8cc#L
8ddJ
=
4b
4cc#
8bL
8aJ
=
4f#
8aL
8gJ
8f#L
8gJ
!!linebreak:original
=
4a
8ddL
8bJ
8cc#L
8ddJ
=
4ee
4dd
8cc#L
8ddJ
=
4b
4cc#
8bL
8aJ
=
4dd
4dd
4ryy
=||
8ff#L
8eeJ
2ryy
=
4dd
8bL
8ddJ
8aL
8f#J
=
4e
4e
8cc#L
8bJ
=
4a
8f#L
8dJ
8eL
8dJ
=
4b
4a
8f#L
8gJ
!!linebreak:original
=
4a
8ddL
8bJ
8cc#L
8ddJ
=
4ee
4dd
8cc#L
8ddJ
=
4b
4cc#
8bL
8aJ
=
4dd
4dd
4ryy
=||
*-
